src/assets/images/CoronaBadge.svg

<svg fill="none" height="64" viewBox="0 0 64 64" width="64" xmlns="http://www.w3.org/2000/svg" xmlns:xlink="http://www.w3.org/1999/xlink"><linearGradient id="a" gradientUnits="userSpaceOnUse" x1="32" x2="32" y1="0" y2="64"><stop offset="0" stop-color="#ff8126"/><stop offset="1" stop-color="#ff117e"/></linearGradient><mask id="b" height="64" maskUnits="userSpaceOnUse" width="64" x="0" y="0"><path d="m48.75 0c9.25 0 15.25 6 15.25 15.25v33.5c0 9.25-6 15.25-15.25 15.25h-33.5c-9.25 0-15.25-6-15.25-15.25v-33.5c0-9.25 6-15.25 15.25-15.25z" fill="#fff"/></mask><g mask="url(#b)"><path d="m48.75 0c9.25 0 15.25 6 15.25 15.25v33.5c0 9.25-6 15.25-15.25 15.25h-33.5c-9.25 0-15.25-6-15.25-15.25v-33.5c0-9.25 6-15.25 15.25-15.25z" fill="url(#a)"/><path d="m48.75 0c9.25 0 15.25 6 15.25 15.25v33.5c0 9.25-6 15.25-15.25 15.25h-33.5c-9.25 0-15.25-6-15.25-15.25v-33.5c0-9.25 6-15.25 15.25-15.25z" fill="#313ebd"/><path clip-rule="evenodd" d="m33.7455 7.625c1.8273 0 3.3086 1.46593 3.3086 3.2743 0 1.5582-1.0999 2.8622-2.5733 3.1931l-.0001 16.9825 6.6939-11.5939c-.5921-.6879-.7194-1.695-.2442-2.5181.6028-1.044 1.9467-1.3966 3.0017-.7875s1.4216 1.9492.8188 2.9932c-.4752.8231-1.411 1.2165-2.3028 1.0476l-6.7014 11.607 9.1781-5.2989.7353 1.2735-9.1556 5.2859 7.1185.0001v1.4705h-8.3283l9.7117 5.607-.7353 1.2735-7.5937-4.3842 4.2953 7.4397-1.2735.7352-5.2185-9.0386.0001 13.7207c1.4734.3309 2.5733 1.6349 2.5733 3.1931 0 1.8084-1.4813 3.2743-3.3086 3.2743s-3.3087-1.4659-3.3087-3.2743c0-1.5582 1.1-2.8622 2.5734-3.1931v-13.3444l-6.6938 11.5939c.5921.6879.7194 1.695.2442 2.5181-.6028 1.044-1.9467 1.3966-3.0017.7875s-1.4216-1.9493-.8188-2.9933c.4752-.8231 1.411-1.2164 2.3028-1.0476l6.6863-11.5811-13.1095 7.5689c.4502 1.4415-.1292 3.0461-1.4786 3.8252-1.5661.9041-3.5763.3542-4.4899-1.2283-.9137-1.5825-.3848-3.5983 1.1812-4.5025 1.3495-.7791 3.0288-.4785 4.052.6321l13.1321-7.5818h-13.3964c-.2997.8567-1.1082 1.4705-2.0586 1.4705-1.2056 0-2.1829-.9876-2.1829-2.2058s.9773-2.2057 2.1829-2.2057c.9504 0 1.7589.6138 2.0586 1.4705l12.1865-.0001-13.7622-7.9455c-1.0232 1.1106-2.7025 1.4111-4.052.632-1.566-.9041-2.09488-2.92-1.1812-4.5025.9136-1.5825 2.9238-2.1324 4.4899-1.2282 1.3495.7791 1.9288 2.3837 1.4786 3.8251l15.8801 9.1685-6.9707-12.0737c-.8641.1269-1.7537-.2671-2.2129-1.0626-.6028-1.0441-.2362-2.3842.8188-2.9933s2.3989-.2565 3.0017.7875c.4908.8502.3389 1.8967-.3041 2.5849l6.0176 10.4228v-16.6063c-1.4734-.3309-2.5734-1.6349-2.5734-3.1931 0-1.80837 1.4814-3.2743 3.3087-3.2743z" fill="#fff" fill-rule="evenodd"/><path d="m33.8153 47.275c7.5387 0 13.65-6.1113 13.65-13.65s-6.1113-13.65-13.65-13.65-13.65 6.1113-13.65 13.65 6.1113 13.65 13.65 13.65z" fill="#313ebd"/><path clip-rule="evenodd" d="m34.3018 47.3948c3.9402 0 8.0735-1.8928 10.932-4.8286l-3.5924-3.9015c-1.9315 1.9314-4.5969 3.1676-7.0305 3.1676-4.6355 0-8.228-3.6312-8.228-8.3439s3.5925-8.3052 8.228-8.3052c2.5109 0 5.1763 1.3906 7.0305 3.5152l3.5538-4.3264c-2.6654-2.7427-6.7601-4.481-10.6616-4.481-8.1893 0-14.4086 5.8716-14.4086 13.6747 0 7.8416 6.1034 13.8291 14.1768 13.8291z" fill="#fff" fill-rule="evenodd"/></g></svg>

<svg width="64" height="64" viewBox="0 0 64 64" fill="none" xmlns="http://www.w3.org/2000/svg">
<mask id="mask0" mask-type="alpha" maskUnits="userSpaceOnUse" x="0" y="0" width="64" height="64">
<path d="M48.75 0C58 0 64 6 64 15.25V48.75C64 58 58 64 48.75 64H15.25C6 64 0 58 0 48.75V15.25C0 6 6 0 15.25 0H48.75Z" fill="white"/>
</mask>
<g mask="url(#mask0)">
<path d="M48.75 0C58 0 64 6 64 15.25V48.75C64 58 58 64 48.75 64H15.25C6 64 0 58 0 48.75V15.25C0 6 6 0 15.25 0H48.75Z" fill="url(#paint0_linear)"/>
<path d="M48.75 0C58 0 64 6 64 15.25V48.75C64 58 58 64 48.75 64H15.25C6 64 0 58 0 48.75V15.25C0 6 6 0 15.25 0H48.75Z" fill="#313EBD"/>
<path fill-rule="evenodd" clip-rule="evenodd" d="M33.7455 7.625C35.5728 7.625 37.0541 9.09093 37.0541 10.8993C37.0541 12.4575 35.9542 13.7615 34.4808 14.0924L34.4807 31.0749L41.1746 19.481C40.5825 18.7931 40.4552 17.786 40.9304 16.9629C41.5332 15.9189 42.8771 15.5663 43.9321 16.1754C44.9871 16.7845 45.3537 18.1246 44.7509 19.1686C44.2757 19.9917 43.3399 20.3851 42.4481 20.2162L35.7467 31.8232L44.9248 26.5243L45.6601 27.7978L36.5045 33.0837L43.623 33.0838V34.5543L35.2947 34.5543L45.0064 40.1613L44.2711 41.4348L36.6774 37.0506L40.9727 44.4903L39.6992 45.2255L34.4807 36.1869L34.4808 49.9076C35.9542 50.2385 37.0541 51.5425 37.0541 53.1007C37.0541 54.9091 35.5728 56.375 33.7455 56.375C31.9182 56.375 30.4368 54.9091 30.4368 53.1007C30.4368 51.5425 31.5368 50.2385 33.0102 49.9076L33.0102 36.5632L26.3164 48.1571C26.9085 48.845 27.0358 49.8521 26.5606 50.6752C25.9578 51.7192 24.6139 52.0718 23.5589 51.4627C22.5039 50.8536 22.1373 49.5134 22.7401 48.4694C23.2153 47.6463 24.1511 47.253 25.0429 47.4218L31.7292 35.8407L18.6197 43.4096C19.0699 44.8511 18.4905 46.4557 17.1411 47.2348C15.575 48.1389 13.5648 47.589 12.6512 46.0065C11.7375 44.424 12.2664 42.4082 13.8324 41.504C15.1819 40.7249 16.8612 41.0255 17.8844 42.1361L31.0165 34.5543L17.6201 34.5543C17.3204 35.411 16.5119 36.0248 15.5615 36.0248C14.3559 36.0248 13.3786 35.0372 13.3786 33.819C13.3786 32.6008 14.3559 31.6133 15.5615 31.6133C16.5119 31.6133 17.3204 32.2271 17.6201 33.0838L29.8066 33.0837L16.0444 25.1382C15.0212 26.2488 13.3419 26.5493 11.9924 25.7702C10.4264 24.8661 9.89752 22.8502 10.8112 21.2677C11.7248 19.6852 13.735 19.1353 15.3011 20.0395C16.6506 20.8186 17.2299 22.4232 16.7797 23.8646L32.6598 33.0331L25.6891 20.9594C24.825 21.0863 23.9354 20.6923 23.4762 19.8968C22.8734 18.8527 23.24 17.5126 24.295 16.9035C25.35 16.2944 26.6939 16.647 27.2967 17.691C27.7875 18.5412 27.6356 19.5877 26.9926 20.2759L33.0102 30.6987L33.0102 14.0924C31.5368 13.7615 30.4368 12.4575 30.4368 10.8993C30.4368 9.09093 31.9182 7.625 33.7455 7.625Z" fill="white"/>
<path d="M33.8153 47.275C41.354 47.275 47.4653 41.1637 47.4653 33.625C47.4653 26.0863 41.354 19.975 33.8153 19.975C26.2766 19.975 20.1653 26.0863 20.1653 33.625C20.1653 41.1637 26.2766 47.275 33.8153 47.275Z" fill="#313EBD"/>
<path fill-rule="evenodd" clip-rule="evenodd" d="M34.3018 47.3948C38.242 47.3948 42.3753 45.502 45.2338 42.5662L41.6414 38.6647C39.7099 40.5961 37.0445 41.8323 34.6109 41.8323C29.9754 41.8323 26.3829 38.2011 26.3829 33.4884C26.3829 28.7757 29.9754 25.1832 34.6109 25.1832C37.1218 25.1832 39.7872 26.5738 41.6414 28.6984L45.1952 24.372C42.5298 21.6293 38.4351 19.891 34.5336 19.891C26.3443 19.891 20.125 25.7626 20.125 33.5657C20.125 41.4073 26.2284 47.3948 34.3018 47.3948Z" fill="white"/>
</g>
<defs>
<linearGradient id="paint0_linear" x1="32" y1="0" x2="32" y2="64" gradientUnits="userSpaceOnUse">
<stop stop-color="#FF8126"/>
<stop offset="1" stop-color="#FF117E"/>
</linearGradient>
</defs>
</svg>
